X:135
T:Marwnad yr Ehedydd - Death of the Lark
M:4/4
L:1/8
Q:180
C:Trad. arr. Ceri Rhys Matthews
R:Processional
N:Basically the same as the song but with lines repeated
K:G
EF | G2 E2 F2 ED | E2 E4 EF | G2 E2 F2 ED |
| E6 EF | G2 E2 F2 ED | E2 E4 EF |
G2 E2 F2 ED | E2- E3- E/ D/ EF | G2 G2 F2 F2|
E2 E2 G2 A2 | B2 B2 A2 G2 | G2 F4 EF|
G2 E2 F2 ED | E2 E3- E/ D/ EF | G2 E2 F2 ED|
E2 E4 ||
